X:51
C:Page 26
T:Paddy Whack. MBe.51
S:Matthew Betham MS, Towcett Cumbria, 1815
O:England;Cumbria;Towcett
Z:VMP – Hugh Taylor, 2012
M:6/8
L:1/8
Q:3/8=120
R:.Jig
N:NB-The A part as written was only 7 bars. However, the tune is virtually note for note as that in
N:OFarrell (Pocket Companion for the Irish or Union Pipes, vol. 1), c. 1805; pgs. 26-27, and I have
N:taken the liberty of adding notes from that source to the end of bar 6 and the start of bar 7,
N:to make 8 bars. The 6th bar was originally |ceg cAd| and the 7th bar BGG G2:| with no 8th bar.
K:G
D|GBd gfg|edc BAG|GBd eag|fdd def|
gag fdB|ceg “^NB……………………………………….”dBG|\
GBd cAd|BGG G2:|
|:d/c/|BBB ceg|dBB c2 B|Bcd eag|fdd def|
gag fdB|cec dBG|GBB cAd|BGG G2:|
|:D|GBd Bdg|e/d/c/B/A/G/ AFD|dBB eca|fdd d2 g|
b/a/g/a/b/g/ a/g/f/g/a/g/|g/f/e/f/g/e/ dBG|GBd cAF|BGG G2:|
|:B/c/|dBB ecc|dc/B/A/G/ A2 G|dGG ea/b/a/g/|fdd def|
ga/g/a/g/ fa/f/a/f/|eg/f/g/e/ dBG|GBd cAd|BGG G2:|

